!!!OTL: 127. Freylekhs
!!!Genre:	Freylekh
!!!Mode:	Minor
!!!Listening/dance:	dance
!!!:	*B-:
!!!One_Mode:	no
**kern
*thru
*I"P1
*clefG2
*k[b-e-]
*B-:
=10!|:
!LO:TX:a:i:t=Bb-major
8f
4b-
8cc
=11
4dd
4ee-
=12
(16dd^LL
16ee-J
8ddJ)
(16cc^LL
16ddJ
8ccJ)
=13
(16b-^LL
16ccJ
8b-J)
4f
=14
8f
4b-
8cc
=15
4dd
4ee-
=16
8ddL
16ccL
16ddJJ
8ccL
8b-J
*>B1
=17
2ff
*>B
!LO:TX:a:i:t=Bb-major
8f
4b-
8cc
=11
4dd
4ee-
=12
(16dd^LL
16ee-J
8ddJ)
(16cc^LL
16ddJ
8ccJ)
=13
(16b-^LL
16ccJ
8b-J)
4f
=14
8f
4b-
8cc
=15
4dd
4ee-
=16
8ddL
16ccL
16ddJJ
8ccL
8b-J
*>B2
=18:|!
2b-
*>C
!!!End-Modulation
*g-dor:
=19!|:
!LO:TX:a:i:t=G-raised-fourth
2dd
=20
2cc#X
=21
16b-LL
16aJ
8gJ
8aL
8b-J
=22
16ccnLL
16ccJ
8b-J
8aL
8gJ
=23
2dd
=24
2cc#X
=25
16b-LL
16aJ
8gJ
8aL
8b-J
*>C1
=26
4g
4gg
*>C
!LO:TX:a:i:t=G-raised-fourth
2dd
=20
2cc#X
=21
16b-LL
16aJ
8gJ
8aL
8b-J
=22
16ccnLL
16ccJ
8b-J
8aL
8gJ
=23
2dd
=24
2cc#X
=25
16b-LL
16aJ
8gJ
8aL
8b-J
*>C2
=27:|!
2g
==
*-
